css/elements/social/Facebook.svg

<svg fill="none" height="437" viewBox="0 0 437 437" width="437" xmlns="http://www.w3.org/2000/svg" xmlns:xlink="http://www.w3.org/1999/xlink"><clipPath id="a"><path d="m0 0h436.29v436.55h-436.29z"/></clipPath><g clip-path="url(#a)"><path d="m436 102.09c-.015-7.8676-.728-15.7183-2.13-23.46-1.76-9.46-4.36-18.64-8.81-27.17-4.724-8.9863-10.858-17.1567-18.17-24.2-11.042-10.8623-24.726-18.65857-39.7-22.62-13.72-3.71-27.82-4.45-41.91-4.45-.09-.1-.09-.1-.09-.19h-214v.19c-8.07.18-16 .09-24 1.11-8.7803.78107-17.4223 2.69704-25.71 5.7-12.916 4.758-24.5852 12.3824-34.13 22.3-10.8863 11.0703-18.71157 24.7775-22.71 39.78-3.64 13.63-4.45 27.54-4.45 41.54l-.19 214.85c.28 9.73.37 19.47 2 29.11 1.76 10.2 4.17 20.12 8.9 29.4 6.2545 12.406 15.2231 23.245 26.24 31.71 7.8535 6.223 16.7103 11.063 26.19 14.31 14 4.54 28.47 6.3 43.21 6.3 9.18.1 18.27.28 27.45.28 32.82-.09 65.74 0 98.57 0v-145.89h-49.06v-58.6h49.06v-42s-3.53-69.73 65.18-75.3h52.11v53h-37.92s-16.14 3.1-18.73 18.21v45h54.15l-6 56.1h-49.08v149.27c13.72-.1 27.54-.19 41.26-.38 8.78-.178 17.529-1.108 26.15-2.78 16.32-2.884 31.51-10.268 43.86-21.32 14.65-13.08 24.48-29 28.93-48.31 2.88-12.61 3.62-25.41 3.8-38.21v-2.59c.1-.84-.27-217.91-.27-220.69z" fill="#ecf2fb"/></g></svg>

<svg width="437" height="437" viewBox="0 0 437 437" fill="none" xmlns="http://www.w3.org/2000/svg">
<g clip-path="url(#clip0)">
<path d="M436 102.09C435.985 94.2224 435.272 86.3717 433.87 78.63C432.11 69.17 429.51 59.99 425.06 51.46C420.336 42.4737 414.202 34.3033 406.89 27.26C395.848 16.3977 382.164 8.60143 367.19 4.64C353.47 0.93 339.37 0.19 325.28 0.19C325.19 0.09 325.19 0.09 325.19 0H111.19V0.19C103.12 0.37 95.19 0.28 87.19 1.3C78.4097 2.08107 69.7677 3.99704 61.48 7C48.564 11.758 36.8948 19.3824 27.35 29.3C16.4637 40.3703 8.63843 54.0775 4.64 69.08C1 82.71 0.19 96.62 0.19 110.62L0 325.47C0.28 335.2 0.37 344.94 2 354.58C3.76 364.78 6.17 374.7 10.9 383.98C17.1545 396.386 26.1231 407.225 37.14 415.69C44.9935 421.913 53.8503 426.753 63.33 430C77.33 434.54 91.8 436.3 106.54 436.3C115.72 436.4 124.81 436.58 133.99 436.58C166.81 436.49 199.73 436.58 232.56 436.58V290.69H183.5V232.09H232.56V190.09C232.56 190.09 229.03 120.36 297.74 114.79H349.85V167.79H311.93C311.93 167.79 295.79 170.89 293.2 186V231H347.35L341.35 287.1H292.27V436.37C305.99 436.27 319.81 436.18 333.53 435.99C342.31 435.812 351.059 434.882 359.68 433.21C376 430.326 391.19 422.942 403.54 411.89C418.19 398.81 428.02 382.89 432.47 363.58C435.35 350.97 436.09 338.17 436.27 325.37V322.78C436.37 321.94 436 104.87 436 102.09Z" fill="#ECF2FB"/>
</g>
<defs>
<clipPath id="clip0">
<rect width="436.29" height="436.55" fill="white"/>
</clipPath>
</defs>
</svg>
